src/pos-icons/discord.svg

<svg height="24" viewBox="0 0 24 24" width="24" xmlns="http://www.w3.org/2000/svg"><path d="m22 24-5.25-5 .63 2h-12.88a2.5 2.5 0 0 1 -2.5-2.5v-15a2.5 2.5 0 0 1 2.5-2.5h15a2.5 2.5 0 0 1 2.5 2.5zm-10-17.2c-2.68 0-4.56 1.15-4.56 1.15 1.03-.92 2.83-1.45 2.83-1.45l-.17-.17c-1.69.03-3.22 1.2-3.22 1.2-1.72 3.59-1.61 6.69-1.61 6.69 1.4 1.81 3.48 1.68 3.48 1.68l.71-.9c-1.25-.27-2.04-1.38-2.04-1.38s1.88 1.28 4.58 1.28 4.58-1.28 4.58-1.28-.79 1.11-2.04 1.38l.71.9s2.08.13 3.48-1.68c0 0 .11-3.1-1.61-6.69 0 0-1.53-1.17-3.22-1.2l-.17.17s1.8.53 2.83 1.45c0 0-1.88-1.15-4.56-1.15m-2.07 3.79c.65 0 1.18.57 1.17 1.27 0 .69-.52 1.27-1.17 1.27-.64 0-1.16-.58-1.16-1.27 0-.7.51-1.27 1.16-1.27m4.17 0c.65 0 1.17.57 1.17 1.27 0 .69-.52 1.27-1.17 1.27-.64 0-1.16-.58-1.16-1.27 0-.7.51-1.27 1.16-1.27z"/></svg>

<?xml version="1.0" encoding="UTF-8"?><!DOCTYPE svg PUBLIC "-//W3C//DTD SVG 1.1//EN" "http://www.w3.org/Graphics/SVG/1.1/DTD/svg11.dtd"><svg xmlns="http://www.w3.org/2000/svg" xmlns:xlink="http://www.w3.org/1999/xlink" version="1.1" id="mdi-discord" width="24" height="24" viewBox="0 0 24 24"><path d="M22,24L16.75,19L17.38,21H4.5A2.5,2.5 0 0,1 2,18.5V3.5A2.5,2.5 0 0,1 4.5,1H19.5A2.5,2.5 0 0,1 22,3.5V24M12,6.8C9.32,6.8 7.44,7.95 7.44,7.95C8.47,7.03 10.27,6.5 10.27,6.5L10.1,6.33C8.41,6.36 6.88,7.53 6.88,7.53C5.16,11.12 5.27,14.22 5.27,14.22C6.67,16.03 8.75,15.9 8.75,15.9L9.46,15C8.21,14.73 7.42,13.62 7.42,13.62C7.42,13.62 9.3,14.9 12,14.9C14.7,14.9 16.58,13.62 16.58,13.62C16.58,13.62 15.79,14.73 14.54,15L15.25,15.9C15.25,15.9 17.33,16.03 18.73,14.22C18.73,14.22 18.84,11.12 17.12,7.53C17.12,7.53 15.59,6.36 13.9,6.33L13.73,6.5C13.73,6.5 15.53,7.03 16.56,7.95C16.56,7.95 14.68,6.8 12,6.8M9.93,10.59C10.58,10.59 11.11,11.16 11.1,11.86C11.1,12.55 10.58,13.13 9.93,13.13C9.29,13.13 8.77,12.55 8.77,11.86C8.77,11.16 9.28,10.59 9.93,10.59M14.1,10.59C14.75,10.59 15.27,11.16 15.27,11.86C15.27,12.55 14.75,13.13 14.1,13.13C13.46,13.13 12.94,12.55 12.94,11.86C12.94,11.16 13.45,10.59 14.1,10.59Z" /></svg>
